usr/share/icons/biglinux-icons-material-dark/16/actions/games-highscores.svg

<svg xmlns="http://www.w3.org/2000/svg" viewBox="0 0 16 16">
  <defs id="defs3051">
    <style type="text/css" id="current-color-scheme">
      .ColorScheme-Text {
        color:#dedede;
      }
      </style>
  </defs>
 <path style="fill:currentColor;fill-opacity:1;stroke:none" 
     d="M 5.0175781 2 C 5.0289131 2.4577976 5.0297601 2.7995517 5.0332031 3.2304688 C 3.9693109 3.1670214 2.9215824 3.0922409 2.0175781 3 C 2.0175781 6.64947 3.6879081 10.288801 7.0175781 10.900391 L 7.0175781 13 L 6.0175781 13 L 6.0175781 14 L 7.0175781 14 L 9.0175781 14 L 10.017578 14 L 10.017578 13 L 9.0175781 13 L 9.0175781 10.900391 C 12.151965 10.324668 13.796075 7.0632233 13.980469 3.6386719 C 13.998419 3.4231506 13.996928 3.2927952 14 3 C 12.963105 3.0980237 11.895422 3.1752174 10.994141 3.2226562 C 11.001842 2.8151362 11.010558 2.4075306 11.017578 2 C 9.2082283 2.45279 7.2624581 2.58158 5.0175781 2 z M 8.0175781 4 L 8.6367188 5.3164062 L 10.017578 5.5273438 L 9.0175781 6.5527344 L 9.2539062 8 L 8.0175781 7.3164062 L 6.78125 8 L 7.0175781 6.5527344 L 6.0175781 5.5273438 L 7.3984375 5.3164062 L 8.0175781 4 z M 12.964844 4.09375 C 12.776632 6.3665143 11.957626 8.8475713 9.7578125 9.6953125 C 10.538634 8.2533355 10.825859 5.9576496 10.9375 4.234375 C 11.591174 4.200215 12.271992 4.151513 12.964844 4.09375 z M 3.0722656 4.0996094 C 3.7597792 4.1576111 4.4419381 4.2085484 5.0976562 4.2421875 C 5.2096661 5.9646696 5.4976493 8.2553996 6.2773438 9.6953125 C 4.0794644 8.8483131 3.2614206 6.3707486 3.0722656 4.0996094 z "
     class="ColorScheme-Text"
     />
</svg>

<svg xmlns="http://www.w3.org/2000/svg" viewBox="0 0 16 16">
<defs id="defs3051">
<style id="current-color-scheme" type="text/css">
.ColorScheme-Text{color:#dedede}
</style>
</defs>
<path d="M5.018 2c.01.458.012.8.015 1.23A75 75 0 0 1 2.018 3c0 3.65 1.67 7.289 5 7.9V13h-1v1h4v-1h-1v-2.1c3.134-.575 4.778-3.837 4.962-7.261.018-.216.017-.346.02-.639a75 75 0 0 1-3.006.223q.013-.611.024-1.223c-1.81.453-3.756.582-6 0m3 2 .619 1.316 1.38.211-1 1.026L9.255 8l-1.236-.684L6.78 8l.237-1.447-1-1.026 1.38-.21zm4.947.094c-.188 2.273-1.007 4.754-3.207 5.601.78-1.442 1.068-3.737 1.18-5.46a66 66 0 0 0 2.027-.141M3.072 4.1c.688.058 1.37.109 2.026.142.112 1.723.4 4.013 1.18 5.453-2.2-.847-3.018-3.324-3.207-5.595" class="ColorScheme-Text" style="fill:currentColor;fill-opacity:1;stroke:none"/>
</svg>
